component-icons/svg/datepicker.svg

<?xml version="1.0" encoding="utf-8"?>
<!-- Generator: Adobe Illustrator 24.2.3, SVG Export Plug-In . SVG Version: 6.00 Build 0)  -->
<svg version="1.1" id="Layer_1" xmlns="http://www.w3.org/2000/svg" xmlns:xlink="http://www.w3.org/1999/xlink" x="0px" y="0px"
	 width="24px" height="24px" viewBox="0 0 24 24" enable-background="new 0 0 24 24" xml:space="preserve">
<path d="M6,20h3v-3H6V20z M13,5h-3v3h3V5z M9,9H6v3h3V9z M6,16h3v-3H6V16z M19,19.2L16.2,22H4V4H2v20h15l4-4l0,0V4h-2V19.2z M10,12
	h3V9h-3V12z M17,5h-3v3h3V5z M10,16h3v-3h-3V16z M0,0v2h22l2-2H0z M14,16h3v-3h-3V16z M14,12h3V9h-3V12z M10,20h3v-3h-3V20z"/>
</svg>

<svg id="Layer_1" data-name="Layer 1" xmlns="http://www.w3.org/2000/svg" viewBox="0 0 24 24">
  <defs>
    <style>
      .cls-1 {
        fill: gray;
      }
    </style>
  </defs>
  <title>datepicker</title>
  <path class="cls-1" d="M6,20H9V17H6ZM13,5H10V8h3ZM9,9H6v3H9ZM6,16H9V13H6Zm13,3.17L16.17,22H4V4H2V24H17l4-4h0V4H19ZM10,12h3V9H10Zm7-7H14V8h3ZM10,16h3V13H10ZM0,0V2H22l2-2ZM14,16h3V13H14Zm0-4h3V9H14Zm-4,8h3V17H10Z"/>
</svg>
